X: 1
T: Wicked Willie
P: Wicked Willie
C: Andrew Rankine
C: from John Chambers 2008, arr. T. Traub 10-21-2015
R: reel
Z: 2008 John Chambers <jc:trillian.mit.edu>
M: 4/4
L: 1/8
K: D
A2 |: "D"d2ce dfed | "Bm"dfed "A"cee2 | "A"c2Bd cecB | "A"ABAG "D"FAA2 | "D"d2ce dfed |
"Bm"dfed "A"cee2 | "A"c2Bd cecB | "A"Acge "D"fdd2 :||: "D"f2ef edcB | "D"A2^GA BAGA |
"A7"=G2FG AGFG | "D"A2^GA BAGA | "D"f2ef edcB | "D"A2^GA BAGA | "Em"=G2FG "A"BGcA | "D"d2d2 d4 :|

